source/img/cat-slim-tablet.svg

<svg width="140" height="192" viewBox="0 0 140 192" fill="none" xmlns="http://www.w3.org/2000/svg">
<g clip-path="url(#clip0)">
<path d="M109.68 0H108.92C107.636 0.718392 106.614 1.81987 106 3.14722C104.875 5.28913 104.009 7.55462 103.42 9.89691C103.294 10.6012 102.934 11.244 102.398 11.7241C101.863 12.2042 101.181 12.4945 100.46 12.5493C98.2558 12.9253 96.1675 13.7949 94.3546 15.0917C92.5418 16.3884 91.0523 18.0779 90 20.0313C88.5532 22.5676 87.3158 25.2154 86.3 27.9489C83.46 35.233 81.28 42.7546 78.6 50.0981C77.34 53.4433 77.28 53.4433 73.48 53.4433C68.94 53.4433 69.26 52.7505 69.2 57.699C69.2 59.2627 69.68 60.0544 71.36 59.9753C71.88 59.9753 72.66 59.7179 72.86 60.3909C73.06 61.0639 72.38 61.3608 71.98 61.7567C69.6086 64.1392 66.6075 65.8129 63.32 66.5864C59.52 67.5959 55.64 68.3876 51.94 69.6148C42.44 72.7621 33.66 77.1563 26.82 84.5988C22.8206 89.2214 19.6177 94.4643 17.34 100.117C10 117.219 6.44 135.231 3.68 153.422C2.38 161.953 1.46 170.524 0.76 179.154C0.4 183.39 0 187.685 0 192H66.66C66.7707 191.129 66.6102 190.245 66.2 189.466C65.5589 187.887 64.5171 186.498 63.1753 185.434C61.8335 184.369 60.237 183.665 58.54 183.39C57.14 183.073 56.98 182.657 57.84 181.569C59.2427 179.716 60.318 177.641 61.02 175.433C64.28 165.912 65.54 155.975 67.12 146.138C68.0125 138.624 70.3477 131.348 74 124.701C76.8488 119.809 80.6486 115.523 85.18 112.092C86.84 110.845 86.9 110.845 87.18 112.963C87.38 114.369 87.42 115.814 87.52 117.239C88.1202 126.59 87.9998 135.973 87.16 145.306C86.4048 152.541 86.3044 159.828 86.86 167.08C87.6551 175.499 89.1739 183.836 91.4 192H118C117.653 189.857 116.656 187.869 115.142 186.3C113.627 184.731 111.667 183.653 109.52 183.212C107.013 182.817 104.45 182.952 102 183.607C100.8 183.885 100.3 183.607 100.2 182.321C99.3725 171.842 100.046 161.3 102.2 151.007C104.868 139.125 106.91 127.114 108.32 115.022C108.845 110.139 110.398 105.419 112.88 101.166C115.26 96.9699 117.34 92.6153 119.68 88.3992C120.609 86.8662 121.168 85.1417 121.314 83.3599C121.46 81.5781 121.188 79.7871 120.52 78.1262C119.98 76.7208 119.46 75.2957 118.8 73.9497C116.8 70.0899 114.8 66.2697 112.96 62.3703C111.98 60.3909 112.2 60.1534 114.38 60.094C117.64 60.094 117.64 60.094 117.7 56.8478C117.7 56.4124 117.7 55.9769 117.7 55.5414C117.7 54.1757 117.18 53.4235 115.7 53.5621C114.7 53.5621 113.7 53.5621 112.66 53.5621C111.28 53.5621 110.88 52.988 111.22 51.5827C111.895 49.2981 113.222 47.2551 115.042 45.6995C116.862 44.1438 119.098 43.1418 121.48 42.814C125.911 42.4338 130.376 42.7207 134.72 43.6652C135.221 43.8215 135.765 43.7762 136.232 43.5391C136.7 43.3021 137.055 42.8923 137.22 42.3983C138.02 40.419 138.9 38.4396 139.8 36.4602C140.004 36.109 140.094 35.7044 140.058 35.3008C140.023 34.8973 139.863 34.5144 139.6 34.2037C133.2 26.1674 126.26 18.6656 116.8 13.8557C116.343 13.661 115.942 13.3561 115.635 12.9688C115.328 12.5816 115.123 12.1243 115.04 11.6388C114.505 8.80926 113.653 6.04751 112.5 3.40454C111.959 1.99643 110.969 0.801217 109.68 0V0Z" fill="black"/>
</g>
<defs>
<clipPath id="clip0">
<rect width="140" height="192" fill="white"/>
</clipPath>
</defs>
</svg>

<svg width="140" height="192" fill="none" xmlns="http://www.w3.org/2000/svg"><g clip-path="url(#clip0)"><path d="M109.68 0h-.76A6.96 6.96 0 00106 3.15c-1.13 2.14-2 4.4-2.58 6.75a3.21 3.21 0 01-2.96 2.65A14.76 14.76 0 0090 20.03a53.8 53.8 0 00-3.7 7.92c-2.84 7.28-5.02 14.8-7.7 22.15-1.26 3.34-1.32 3.34-5.12 3.34-4.54 0-4.22-.69-4.28 4.26 0 1.56.48 2.35 2.16 2.28.52 0 1.3-.26 1.5.41.2.67-.48.97-.88 1.37a18.05 18.05 0 01-8.66 4.83c-3.8 1-7.68 1.8-11.38 3.02-9.5 3.15-18.28 7.55-25.12 14.99-4 4.62-7.2 9.86-9.48 15.52-7.34 17.1-10.9 35.11-13.66 53.3a368.2 368.2 0 00-2.92 25.73C.4 183.4 0 187.68 0 192h66.66a4.28 4.28 0 00-.46-2.53 9.9 9.9 0 00-7.66-6.08c-1.4-.32-1.56-.73-.7-1.82a20.42 20.42 0 003.18-6.14c3.26-9.52 4.52-19.46 6.1-29.3A58.95 58.95 0 0174 124.7a42.9 42.9 0 0111.18-12.6c1.66-1.25 1.72-1.25 2 .86.2 1.4.24 2.85.34 4.28.6 9.35.48 18.73-.36 28.07-.76 7.23-.86 14.52-.3 21.77.8 8.42 2.31 16.76 4.54 24.92H118a10.67 10.67 0 00-2.86-5.7 10.85 10.85 0 00-5.62-3.09c-2.5-.4-5.07-.26-7.52.4-1.2.27-1.7 0-1.8-1.29a110.42 110.42 0 012-31.31 348.46 348.46 0 006.12-35.99c.53-4.88 2.08-9.6 4.56-13.85 2.38-4.2 4.46-8.55 6.8-12.77a11.54 11.54 0 00.84-10.27c-.54-1.4-1.06-2.83-1.72-4.18-2-3.86-4-7.68-5.84-11.58-.98-1.98-.76-2.22 1.42-2.28 3.26 0 3.26 0 3.32-3.24v-1.3c0-1.37-.52-2.13-2-1.99h-3.04c-1.38 0-1.78-.57-1.44-1.98.67-2.28 2-4.32 3.82-5.88a12.54 12.54 0 016.44-2.89c4.43-.38 8.9-.09 13.24.86a2.02 2.02 0 002.5-1.27c.8-1.98 1.68-3.96 2.58-5.94a1.96 1.96 0 00-.2-2.26c-6.4-8.03-13.34-15.53-22.8-20.34a2.97 2.97 0 01-1.76-2.22 38.46 38.46 0 00-2.54-8.24 6.94 6.94 0 00-2.82-3.4z" fill="#000"/></g><defs><clipPath id="clip0"><path fill="#fff" d="M0 0h140v192H0z"/></clipPath></defs></svg>
